build/system/LinkOutline.svg

<svg xmlns="http://www.w3.org/2000/svg" fill="none" viewBox="0 0 24 24" focusable="false"><path d="M0 0H24V24H0z"/><path fill="#74767B" fill-rule="evenodd" d="M19.2956 4.50315C17.2844 2.49195 14.0236 2.49195 12.0124 4.50315L9.67191 6.84367C9.41807 7.09751 9.41807 7.50906 9.67191 7.7629C9.92575 8.01674 10.3373 8.01674 10.5912 7.7629L12.9317 5.42239C14.4352 3.91887 16.8729 3.91887 18.3764 5.42239C19.8799 6.92591 19.8799 9.36359 18.3764 10.8671L16.0359 13.2076C15.782 13.4615 15.782 13.873 16.0359 14.1269C16.2897 14.3807 16.7013 14.3807 16.9551 14.1269L19.2956 11.7863C21.3068 9.77515 21.3068 6.51435 19.2956 4.50315ZM14.4802 9.31854C14.7341 9.57238 14.7341 9.98394 14.4802 10.2378L10.2376 14.4804C9.98374 14.7343 9.57219 14.7343 9.31835 14.4804C9.0645 14.2266 9.0645 13.815 9.31835 13.5612L13.561 9.31854C13.8148 9.0647 14.2264 9.0647 14.4802 9.31854ZM11.8624 19.2196C9.8512 21.2308 6.5904 21.2308 4.5792 19.2196C2.568 17.2084 2.568 13.9476 4.5792 11.9364L6.84348 9.6721C7.09732 9.41825 7.50887 9.41825 7.76272 9.6721C8.01656 9.92594 8.01656 10.3375 7.76272 10.5913L5.49844 12.8556C3.99492 14.3591 3.99492 16.7968 5.49844 18.3003C7.00196 19.8039 9.43964 19.8039 10.9432 18.3003L13.2074 16.0361C13.4613 15.7822 13.8728 15.7822 14.1267 16.0361C14.3805 16.2899 14.3805 16.7015 14.1267 16.9553L11.8624 19.2196Z"/></svg>

<svg xmlns="http://www.w3.org/2000/svg" fill="none" viewBox="0 0 24 24" focusable="false"><path fill="#74767B" fill-rule="evenodd" d="M12.01 4.5a5.148 5.148 0 0 1 7.28 7.28l-2.34 2.34a.64.64 0 0 1-.92 0 .66.66 0 0 1 0-.92l2.34-2.34a3.85 3.85 0 0 0 0-5.44 3.833 3.833 0 0 0-5.44 0l-2.34 2.34c-.26.25-.67.25-.92 0a.64.64 0 0 1 0-.92zm2.47 4.81c.25.26.25.67 0 .92l-4.25 4.25c-.25.25-.66.25-.92 0a.66.66 0 0 1 0-.92l4.25-4.25c.25-.25.66-.25.92 0m-2.62 9.9a5.14 5.14 0 0 1-7.29 0 5.15 5.15 0 0 1 0-7.28l2.27-2.26a.64.64 0 0 1 .92 0c.25.25.25.66 0 .92l-2.27 2.26c-1.5 1.5-1.5 3.94 0 5.45 1.51 1.5 3.94 1.5 5.45 0l2.26-2.27c.26-.25.67-.25.92 0 .26.25.26.67 0 .92z"/></svg>
